X: 25083
T: Maids Of Mitchelstown, The
R: reel
M: 4/4
K: Dminor
|:D2AG EG~G2|A2GA cAGE|D2AG EG~G2|1 A2GE EDCE:|2 A2GE EDD2||
EGA=B c2BG|Adde f2ed|cAGE F3G|AcGE EDD2|
EGA=B cEGc|^FAde =f2ed|cAGE F3G|A/B/c =B/c/d cAGE||

